icons/svg/download.svg

﻿<?xml version="1.0" encoding="utf-8"?>
<!DOCTYPE svg PUBLIC "-//W3C//DTD SVG 1.1//EN" "http://www.w3.org/Graphics/SVG/1.1/DTD/svg11.dtd">
<svg xmlns="http://www.w3.org/2000/svg" xmlns:xlink="http://www.w3.org/1999/xlink" version="1.1" baseProfile="full" width="24" height="24" viewBox="0 0 24.00 24.00" enable-background="new 0 0 24.00 24.00" xml:space="preserve">
	<path fill="#000000" fill-opacity="1" stroke-width="0.2" stroke-linejoin="round" d="M 4.9994,19.9981L 18.9994,19.9981L 18.9994,17.9981L 4.9994,17.9981M 18.9994,8.99807L 14.9994,8.99807L 14.9994,2.99807L 8.9994,2.99807L 8.9994,8.99807L 4.9994,8.99807L 11.9994,15.9981L 18.9994,8.99807 Z "/>
</svg>

<svg xmlns="http://www.w3.org/2000/svg" version="1.1" baseProfile="full" width="24" height="24" viewBox="0 0 24.00 24.00" xml:space="preserve"><path fill="#000" fill-opacity="1" stroke-width=".2" stroke-linejoin="round" d="M5 19.998h14v-2H5m14-9h-4v-6H9v6H5l7 7 7-7z"/></svg>
